X: 40288
T: Tolka, The
R: polka
M: 2/4
K: Adorian
|:e>fg fd|e>fg fd|f/g/f/e/d cB|d>cB cg|
de cA|B/c/B/A/ Gd|BA A2:|

